X:1
T:Title
%%score [ 1 2 ]
L:1/8
Q:1/4=180
M:3/4
K:G
V:1 treble nm="S" snm="S"
V:2 bass nm="B" snm="B"
V:1
"^I care not for these ladies" D2 | G4 A2 | B4 c2 | B6 | A4 F2 | G4 G2 | %6
w: I|care not|for these|la-|dies That|must be|
w: If|I love|A- ma-|ril-|lis, She|gives me|
w: ~These|la- dies|must have|pil-|lows, And|beds by|
 c4"^Thomas Campion\n(1575-1619)" B2 | A6 |[M:3/4] z2 z2 D2 | G4 A2 | B4 c2 | B6 | A4 F2 | G4 G2 | %14
w: woo- ed~and|prayed:|Give|me kind|A- ma-|ril-|lis, The|wan- ton|
w: fruit and|flowers:|But|if we|love these|la-|dies, We|must give|
w: stran- gers|wrought:|Give|me a|bower of|wil-|lows, Of|moss and|
 c4 B2 | A6 | E4 F2 | G4 A2 | F6 | D4 d2 | d4 e2 | c4 d2 | B6 | z2 z2 d2 | (d3 c) B2 | A4 B2 | c6 | %27
w: coun- try|maid.|Na- ture|art dis-|dain-|eth; Her|be~au- ty|is her|own.|Her,||||
w: gold- en|showers.|Give them|gold that|sell|love; Give|me the|nut- brown|lass,|Who|when * we|court and|kiss,|
w: leaves un-|bought,|And fresh|A- ma-|ril-|lis, With|milk and|ho- ney|fed,|Who||||
 z2 z2 c2 | (c3 d) c2 | B4 B2 | A6 | z2 z2 B2 | A4 G2 | A4 F2 | G4 G2 | A4 (Bc) | (d3 c) B2 | %37
w: ||||||||||
w: She|cries * for-|sooth, let|go,|But|* we|come where|com- fort|is, She *|ne\- * ver|
w: ||||||||||
 A4 A2 | G6 |] %39
w: ||
w: will say|no.|
w: ||
V:2
 G,2 | G,4 D,2 | G,4 C,2 | G,6 | D,4 D,2 | G,4 G,2 | F,4 G,2 | D,6 |[M:3/4] z2 z2 G,2 | G,4 D,2 | %10
w: ||||||||||
 G,4 C,2 | G,6 | D,4 D,2 | G,4 G,2 | F,4 G,2 | D,6 | A,3 G, F,2 | E,4 A,,2 | D,6 | D,4 D,2 | %20
w: ||||||||||
 G,,4 C,2 | A,,4 D,2 | G,,6 | z2 z2 G,,2 | G,,4 G,,2 | D,4 G,,2 | C,6 | z2 z2 C,2 | C,4 C,2 | %29
w: |||||||||
 G,,4"^1" G,,2 | D,6 | z2 z2 G,,2 | (D,3 C,) B,,2 | A,,4 D,2 | G,4 E,2 | D,4 G,,2 | G,4 G,2 | %37
w: |||when * *|||||
 D,4 D,2 | G,,6 |] %39
w: ||

